docs/assets/logo/logo-white1.svg

<svg width="132" height="46" viewBox="0 0 132 46" fill="none" xmlns="http://www.w3.org/2000/svg">
<g clip-path="url(#clip0_304_44)">
<mask id="mask0_304_44" style="mask-type:luminance" maskUnits="userSpaceOnUse" x="0" y="0" width="132" height="46">
<path d="M0 0H131.309V46H0V0Z" fill="white"/>
</mask>
<g mask="url(#mask0_304_44)">
<path d="M54.952 12.044C56.88 12.044 58.554 12.362 59.973 12.997C61.414 13.633 62.516 14.544 63.279 15.731C64.041 16.917 64.423 18.326 64.423 19.958C64.423 21.568 64.041 22.977 63.279 24.185C62.516 25.371 61.414 26.282 59.973 26.918C58.553 27.554 56.88 27.871 54.952 27.871H49.93V34.291H45.8V12.044H54.952ZM54.762 24.375C56.562 24.375 57.929 23.994 58.861 23.231C59.793 22.468 60.259 21.377 60.259 19.958C60.259 18.538 59.793 17.447 58.861 16.684C57.929 15.921 56.562 15.54 54.761 15.54H49.931V24.375H54.762ZM68.967 12.044H73.099V30.795H84.73V34.291H68.967V12.044ZM104.668 29.143H93.544L91.35 34.29H87.091L97.102 12.043H101.171L111.214 34.29H106.891L104.667 29.142L104.668 29.143ZM103.301 25.901L99.106 16.176L94.942 25.901H103.301ZM122.726 26.441V34.291H118.594V26.505L109.854 12.044H114.272L120.787 22.881L127.366 12.044H131.434L122.726 26.441ZM16.727 39.309C25.965 39.309 33.455 31.82 33.455 22.582C33.455 13.343 25.965 5.854 16.727 5.854C7.49 5.854 0 13.344 0 22.582C0 31.82 7.489 39.309 16.727 39.309Z" fill="white"/>
</g>
</g>
<path d="M14.4691 11.1755C14.7824 11.2967 15.0522 11.5488 15.5916 12.053L27.3749 23.0676C25.389 23.1569 23.4284 23.5486 21.5606 24.2291L13.7444 16.8076C13.6821 16.7483 13.6022 16.7109 13.5168 16.7008C13.4314 16.6908 13.3451 16.7087 13.2707 16.7518C13.1963 16.7949 13.1378 16.8609 13.1041 16.94C13.0704 17.0191 13.0632 17.107 13.0835 17.1906L15.6314 27.6463C14.0998 28.9266 12.7733 30.434 11.6982 32.1159L8.07006 16.3913C7.90444 15.6729 7.82153 15.3136 7.87361 14.982C7.9194 14.6892 8.03942 14.413 8.22222 14.1797C8.42959 13.9155 8.74887 13.7312 9.38756 13.3624L12.3074 11.6767C12.9467 11.3076 13.2664 11.123 13.5993 11.0758C13.893 11.0341 14.1924 11.0685 14.4691 11.1755Z" fill="#3758F9"/>
<path d="M23.6989 26.0382C23.3594 26.9987 22.2466 28.1626 20.7048 29.0528C18.8124 30.1453 16.8863 30.4719 16.008 29.9226C16.1196 30.4636 16.3858 31.0026 16.5776 31.3348C16.5776 31.3348 17.4197 33.0222 19.208 33.5014C19.0448 33.2186 19.0006 32.8826 19.0851 32.5673C19.1696 32.252 19.3759 31.9832 19.6587 31.8199C20.6677 31.2374 21.1749 32.1183 21.5864 32.8332L21.6232 32.8968C22.2491 33.981 23.4482 34.5279 24.6167 34.3755C24.2993 34.1608 24.0349 33.8765 23.8438 33.5443C23.2468 32.5104 23.6316 31.7748 24.0789 30.9201C24.4345 30.24 24.8298 29.4843 24.8016 28.4426C24.7863 27.8816 24.6308 27.3333 24.3495 26.8477C24.1705 26.5377 23.9499 26.2669 23.6989 26.0382Z" fill="#1B44C8"/>
<defs>
<clipPath id="clip0_304_44">
<rect width="132" height="46" fill="white"/>
</clipPath>
</defs>
</svg>

<svg xmlns="http://www.w3.org/2000/svg" width="132" height="46" fill="none"><g clip-path="url(#a)"><mask id="b" width="132" height="46" x="0" y="0" maskUnits="userSpaceOnUse" style="mask-type:luminance"><path fill="#fff" d="M0 0h131.309v46H0z"/></mask><g mask="url(#b)"><path fill="#fff" d="M54.952 12.044q2.892 0 5.021.953 2.162.954 3.306 2.734 1.143 1.779 1.144 4.227 0 2.415-1.144 4.227-1.145 1.779-3.306 2.733-2.13.953-5.021.953H49.93v6.42H45.8V12.044zm-.19 12.331q2.7 0 4.099-1.144 1.398-1.145 1.398-3.273 0-2.13-1.398-3.274t-4.1-1.144h-4.83v8.835zm14.205-12.331h4.132v18.751H84.73v3.496H68.967zm35.701 17.099H93.544L91.35 34.29h-4.259l10.011-22.247h4.069l10.043 22.247h-4.323l-2.224-5.148zm-1.367-3.242-4.195-9.725-4.164 9.725zm19.425.54v7.85h-4.132v-7.786l-8.74-14.461h4.418l6.515 10.837 6.579-10.837h4.068zM16.727 39.309c9.238 0 16.728-7.489 16.728-16.727 0-9.239-7.49-16.728-16.728-16.728C7.49 5.854 0 13.344 0 22.582s7.489 16.727 16.727 16.727"/></g></g><path fill="#3758F9" d="M14.47 11.176c.312.12.582.373 1.122.877l11.783 11.015a19.6 19.6 0 0 0-5.814 1.161l-7.817-7.421a.398.398 0 0 0-.66.383l2.547 10.455a19.6 19.6 0 0 0-3.933 4.47L8.07 16.39c-.166-.718-.248-1.077-.196-1.409.045-.293.165-.569.348-.802.208-.264.527-.449 1.166-.818l2.92-1.685c.639-.37.958-.554 1.291-.601.294-.042.593-.008.87.1"/><path fill="#1B44C8" d="M23.699 26.038c-.34.96-1.452 2.125-2.994 3.015-1.893 1.092-3.819 1.419-4.697.87.112.54.378 1.08.57 1.412 0 0 .842 1.687 2.63 2.166a1.23 1.23 0 0 1 .45-1.681c1.01-.583 1.517.298 1.928 1.013l.037.064a3.01 3.01 0 0 0 2.994 1.479 2.5 2.5 0 0 1-.773-.832c-.597-1.034-.212-1.77.235-2.624.355-.68.75-1.436.723-2.477a3.38 3.38 0 0 0-1.103-2.404"/><defs><clipPath id="a"><path fill="#fff" d="M0 0h132v46H0z"/></clipPath></defs></svg>
